X: 1
T: Reedy Johnson's
M: 4/4
L: 1/8
R: reel
K: Gmaj
BcdB G2BG| DGBG dGBG |1 BcdB G2BG |
FGAB ~c2Bc :|2 dB (3cBA BGAG | FGAB ~c2Bc ||
Bcde dcBc| d2gd adgd |1 Bcde dcBG |
A2 ag fdec :|2 ~f3e defg | afge fdec ||
